icon-themes/sifr_svg/res/plus.svg

<svg viewBox="0 0 11 11" xmlns="http://www.w3.org/2000/svg"><path d="m10 3c0 .30945 0 .55232-.3.75l-3.8 5.25h-1.8c-1.4558056-1.645942-2.9407516-4.0908837-3.81873243-5.25-.19096193-.19768-.28126757-.44055-.28126757-.75v-.5859375-.4140625h1.0000625c.3576761 0 .5223291 0 .7187949.3125l3.2810252 4.6875 3.2812595-4.6875c.1843091-.2186246.1322846-.3125.718795-.3125h1.0000629v.4140625z" fill="#555753"/></svg>

<svg xmlns="http://www.w3.org/2000/svg" viewBox="0 0 11 11">
  <path
     style="fill:#555753"
     d="M 10,3 C 10,3.30945 10,3.55232 9.7,3.75 L 5.9,9 H 4.1 C 2.6441944,7.354058 1.1592484,4.9091163 0.28126757,3.75 0.09030564,3.55232 0,3.30945 0,3 V 2.4140625 2 H 1.0000625 C 1.3577386,2 1.5223916,2 1.7188574,2.3125 L 4.9998826,7 8.2811421,2.3125 C 8.4654512,2.0938754 8.4134267,2 8.9999371,2 H 10 v 0.4140625 z"
     />
</svg>
